lib/logo_tmp/nrk-logo-nrk-sapmi.svg

<svg width="87" height="24" viewBox="0 0 87 24" fill="none" xmlns="http://www.w3.org/2000/svg">
<path d="M6.10352e-05 17.9994V6.00048H3.93725V17.9994H6.10352e-05ZM9.29387 7.91017L11.5581 17.9994H7.24923L4.54555 6.00048H6.96224C7.51641 5.99329 8.05412 6.18864 8.47456 6.54978C8.89568 6.89577 9.18501 7.37609 9.29387 7.91017ZM12.1496 17.9994V6.00048H16.0868V17.9994H12.1496ZM19.0605 10.5635C18.6363 10.5676 18.2188 10.4566 17.8526 10.2424C17.4913 10.0335 17.1912 9.73335 16.9823 9.37199C16.7678 9.00572 16.6568 8.58815 16.661 8.16371C16.6562 7.74185 16.7673 7.32677 16.9823 6.96382C17.1934 6.60638 17.4932 6.30948 17.8526 6.10191C18.2189 5.88789 18.6363 5.7769 19.0605 5.78077C19.4823 5.77623 19.8972 5.88732 20.2603 6.10191C20.6161 6.3113 20.9127 6.60795 21.1221 6.96382C21.3369 7.32687 21.448 7.74188 21.4434 8.16371C21.4473 8.58812 21.3363 9.00562 21.1221 9.37199C20.9149 9.73177 20.618 10.0317 20.2603 10.2424C19.8972 10.4574 19.4819 10.5685 19.06 10.5635H19.0605ZM22.0517 17.9994V6.00048H25.9892V17.9994H22.0517ZM30.9738 12.5576C30.9849 12.5693 31.0693 12.7073 31.2272 12.9717C31.3851 13.2361 31.5907 13.5741 31.844 13.9857C32.0975 14.3971 32.3649 14.8336 32.6464 15.2954C32.9278 15.7571 33.1927 16.1938 33.4409 16.6052C33.6882 17.0166 33.9698 17.4813 34.2858 17.9994H29.9599C29.6893 17.56 29.4442 17.1629 29.2245 16.808C29.0049 16.4531 28.7714 16.07 28.5239 15.6587C28.2759 15.2479 28.0307 14.8479 27.7883 14.4589C27.5459 14.0698 27.3376 13.729 27.1633 13.4364C26.9883 13.1437 26.8671 12.9465 26.7997 12.8449C26.6326 12.5928 26.5337 12.3017 26.5127 11.9999C26.5295 11.7103 26.6227 11.4304 26.7828 11.1885C26.8504 11.0758 26.9743 10.8758 27.1546 10.5885C27.3348 10.3012 27.5461 9.96044 27.7883 9.56611C28.0305 9.17178 28.2757 8.76899 28.5239 8.35776C28.7721 7.94654 29.0056 7.56063 29.2245 7.2001C29.4446 6.83994 29.6897 6.43998 29.9599 6.0002H34.2858L30.9397 11.4589C30.8361 11.621 30.7778 11.8077 30.7707 11.9999C30.7818 12.2017 30.8523 12.3957 30.9732 12.5576H30.9738Z" fill="white"/>
<path d="M45.6564 12.3599C45.4126 12.1083 45.1298 11.8989 44.8192 11.7401C44.4937 11.573 44.1548 11.4339 43.8063 11.3242C43.4487 11.211 43.0804 11.1147 42.7013 11.0352C42.4107 10.9675 42.14 10.8997 41.8892 10.8318C41.6588 10.7715 41.4345 10.6889 41.2195 10.5853C41.0347 10.4966 40.863 10.3823 40.7092 10.2458C40.5643 10.1162 40.4521 9.95325 40.3824 9.77061C40.3051 9.55582 40.2682 9.32825 40.2736 9.09968C40.2698 8.863 40.3066 8.62746 40.3824 8.40357C40.4511 8.20605 40.566 8.02834 40.7172 7.8857C40.874 7.74014 41.052 7.62 41.2449 7.52945C41.4654 7.42754 41.6994 7.35888 41.9395 7.32568C42.2251 7.28441 42.5134 7.26456 42.802 7.26627C43.0648 7.26679 43.3273 7.28087 43.5886 7.30845C43.8531 7.33644 44.1159 7.37902 44.3758 7.43605C44.6281 7.49158 44.8769 7.56246 45.1208 7.64828C45.3492 7.72792 45.5705 7.82725 45.7822 7.94514L46.0166 6.45129C45.7786 6.32534 45.529 6.223 45.2715 6.14569C45.009 6.06664 44.744 5.99862 44.4763 5.94164C44.2052 5.88483 43.9313 5.84243 43.6558 5.81459C43.3768 5.7863 43.0922 5.77214 42.802 5.77214C42.21 5.76565 41.6194 5.834 41.044 5.9756C40.5541 6.09556 40.0911 6.30886 39.6798 6.60411C39.3006 6.87987 38.9955 7.24748 38.7923 7.67346C38.5756 8.15223 38.4697 8.67491 38.4826 9.20155C38.473 9.60911 38.5383 10.0149 38.6752 10.3983C38.7952 10.7197 38.9804 11.0119 39.219 11.256C39.4552 11.4948 39.7263 11.6952 40.0227 11.8502C40.3371 12.0145 40.6649 12.1509 41.0024 12.258C41.354 12.3712 41.714 12.4674 42.0823 12.5466C42.3837 12.6144 42.6627 12.6851 42.9195 12.7589C43.1582 12.8256 43.3906 12.9136 43.614 13.022C43.8062 13.114 43.984 13.2342 44.1417 13.3786C44.2912 13.521 44.4083 13.6949 44.4847 13.8879C44.5736 14.1205 44.6163 14.3686 44.6105 14.618C44.6149 14.8832 44.5753 15.1472 44.4933 15.399C44.4198 15.6168 44.3062 15.8185 44.1584 15.9933C44.0099 16.1656 43.8274 16.3043 43.6227 16.4005C43.3914 16.5086 43.1461 16.583 42.8943 16.6215C42.587 16.6693 42.2764 16.6921 41.9654 16.6894C41.6631 16.6887 41.3612 16.6688 41.0613 16.63C40.7488 16.5904 40.4361 16.5365 40.1234 16.4684C39.8155 16.4019 39.511 16.3197 39.2112 16.2222C38.915 16.1266 38.6332 16.0276 38.3657 15.9254L38.5833 17.6063C38.8687 17.7143 39.1593 17.8077 39.454 17.8861C39.7214 17.9573 39.9924 18.014 40.2657 18.0559C40.528 18.0953 40.7904 18.1265 41.0529 18.1493C41.3154 18.1721 41.5804 18.1834 41.8479 18.1832C42.4473 18.187 43.0453 18.1244 43.6313 17.9965C44.15 17.8861 44.6438 17.6789 45.0877 17.3853C45.502 17.1073 45.8369 16.7238 46.059 16.2731C46.3034 15.7394 46.4209 15.1549 46.402 14.5668C46.4111 14.1286 46.3461 13.6921 46.2097 13.2761C46.0927 12.9338 45.9039 12.6212 45.6564 12.3599Z" fill="white"/>
<path d="M55.6769 16.9271C55.5545 16.9385 55.4312 16.9197 55.3175 16.8724C55.2038 16.8251 55.103 16.7507 55.0237 16.6554C54.8685 16.3834 54.804 16.0678 54.8398 15.7556L54.873 12.258C54.8767 11.8913 54.8317 11.5258 54.739 11.1713C54.6579 10.8603 54.5217 10.5669 54.3372 10.3051C54.1509 10.0494 53.9144 9.83552 53.6427 9.67694C53.3266 9.49524 52.9851 9.36364 52.6298 9.28671C52.1952 9.19155 51.7516 9.146 51.3071 9.15088C50.9543 9.15061 50.6019 9.17321 50.252 9.21852C49.9215 9.26091 49.5942 9.32622 49.2726 9.41403C48.9742 9.49601 48.6807 9.59523 48.3935 9.71117L48.1926 11.1543C48.4717 11.0528 48.7371 10.9679 48.9879 10.8997C49.2388 10.8315 49.4818 10.7752 49.7162 10.7299C49.946 10.6854 50.1781 10.6544 50.4114 10.6368C50.6398 10.6198 50.8657 10.6112 51.0892 10.611C51.4306 10.6037 51.7713 10.6437 52.1021 10.7299C52.3435 10.7912 52.5655 10.914 52.7469 11.0867C52.9085 11.2546 53.0239 11.4624 53.0818 11.6895C53.1532 11.9694 53.187 12.2578 53.1823 12.5469L53.1803 12.9728L51.2236 13.1072C50.5543 13.1261 49.8948 13.2759 49.2815 13.5483C48.8224 13.752 48.4261 14.0776 48.1343 14.4907C47.8867 14.8582 47.7554 15.2935 47.7576 15.7386C47.7545 16.1563 47.8553 16.5682 48.0508 16.9359C48.2556 17.3135 48.5637 17.6229 48.938 17.8269C49.3947 18.0679 49.9051 18.1849 50.4197 18.1665C50.9017 18.1777 51.3816 18.0972 51.8345 17.9291C52.2259 17.7738 52.5841 17.5432 52.8893 17.25C53.0053 17.1374 53.1153 17.0187 53.2188 16.8943C53.2513 17.0701 53.3126 17.2392 53.4002 17.3946C53.5493 17.6545 53.7787 17.8574 54.0529 17.9718C54.356 18.0954 54.6806 18.156 55.0073 18.1501C55.108 18.1501 55.2053 18.147 55.3002 18.1416C55.3934 18.136 55.4859 18.1217 55.5765 18.0989C55.6658 18.0763 55.7467 18.0567 55.8193 18.0395C55.8849 18.0248 55.9492 18.0049 56.0118 17.98L56.196 16.8428C56.1036 16.8748 56.0084 16.8976 55.9116 16.9107C55.8338 16.921 55.7554 16.9265 55.6769 16.9271ZM52.889 16.163C52.7075 16.3086 52.511 16.4339 52.303 16.5369C52.0957 16.6389 51.8762 16.7131 51.65 16.7576C51.4155 16.8033 51.1772 16.8259 50.9385 16.8252C50.6657 16.8333 50.3944 16.7811 50.1434 16.6724C49.939 16.5827 49.7666 16.4317 49.6492 16.2397C49.5332 16.0362 49.4753 15.804 49.4818 15.5691C49.4656 15.2859 49.5423 15.0052 49.6998 14.7708C49.8819 14.5551 50.1289 14.406 50.4027 14.3463C50.8305 14.2444 51.2694 14.1988 51.7086 14.2108H53.1747L53.1675 15.8959C53.0823 15.9927 52.9891 16.0822 52.889 16.163Z" fill="white"/>
<path d="M53.9522 5.10999H52.1442L50.7211 8.14916H52.0273L53.9522 5.10999Z" fill="white"/>
<path d="M64.2238 9.68569C63.6229 9.3126 62.9273 9.12663 62.2231 9.15086C61.8052 9.15297 61.3891 9.20704 60.9841 9.31186C60.5465 9.42487 60.1246 9.59324 59.7284 9.81302C59.6497 9.85631 59.5719 9.90442 59.4937 9.95309V9.16782L57.7863 9.4395V21.562H59.4937V17.7607C59.5052 17.7655 59.5158 17.7709 59.5275 17.776C59.8369 17.9061 60.1599 18.0001 60.4902 18.0561C60.8803 18.1214 61.2752 18.1526 61.6706 18.1495C62.4244 18.1627 63.1676 17.969 63.8218 17.5889C64.4643 17.2028 64.9865 16.641 65.3286 15.9678C65.7237 15.165 65.9164 14.2753 65.8892 13.3785C65.905 12.6202 65.7595 11.8674 65.4626 11.1713C65.2007 10.5647 64.7702 10.0484 64.2238 9.68569ZM63.7802 15.365C63.5791 15.8159 63.242 16.1903 62.8175 16.4344C62.3456 16.6851 61.818 16.808 61.2855 16.7912C61.0305 16.7914 60.7757 16.7714 60.5237 16.7315C60.2592 16.6888 59.9988 16.6236 59.7452 16.5366C59.6648 16.5083 59.5777 16.476 59.494 16.4449V11.0867C59.5163 11.0762 59.5392 11.0626 59.5612 11.0525C59.8068 10.9393 60.0357 10.843 60.2478 10.7635C60.4486 10.6875 60.656 10.6306 60.8672 10.5938C61.0552 10.5609 61.2454 10.5439 61.4362 10.5428C61.9524 10.5254 62.4648 10.6392 62.9266 10.8739C63.3302 11.0968 63.6462 11.4532 63.822 11.8838C64.035 12.4349 64.1348 13.0242 64.1153 13.6157C64.1331 14.2168 64.0186 14.8144 63.7802 15.365Z" fill="white"/>
<path d="M79.5347 9.50744C79.0782 9.25607 78.5637 9.13297 78.0445 9.15088C77.5939 9.14966 77.1465 9.22718 76.7219 9.38008C76.2906 9.53671 75.8844 9.7569 75.5163 10.0335C75.3078 10.1903 75.1094 10.3604 74.9223 10.5428C74.7507 10.1178 74.4481 9.76039 74.0597 9.52412C73.5976 9.27172 73.0775 9.14874 72.5529 9.16784C72.1052 9.16793 71.6607 9.24537 71.2386 9.3968C70.8054 9.55146 70.3965 9.76884 70.0247 10.0422C69.9044 10.13 69.7878 10.2253 69.6731 10.3252V9.16898L67.9654 9.42367V17.9979H69.6731V11.5378C69.8743 11.4041 70.084 11.2842 70.301 11.179C70.5665 11.0515 70.8442 10.9518 71.1297 10.8816C71.3928 10.8159 71.6625 10.7818 71.9334 10.78C72.1822 10.7722 72.4299 10.8155 72.6617 10.9073C72.8535 10.9897 73.0229 11.1177 73.1556 11.2806C73.3011 11.4699 73.4014 11.6909 73.4486 11.926C73.5139 12.2298 73.5448 12.5402 73.5407 12.8511V17.9959H75.2485V12.4945C75.2496 12.1697 75.228 11.8453 75.1838 11.5237C75.3774 11.3949 75.5779 11.2769 75.7843 11.1705C76.0453 11.0371 76.3206 10.9345 76.6047 10.8649C76.8732 10.798 77.1486 10.7637 77.4251 10.7627C77.671 10.7567 77.9157 10.8001 78.145 10.8903C78.3403 10.9709 78.5128 11.0992 78.6473 11.2639C78.7929 11.453 78.8932 11.6739 78.9403 11.909C79.0056 12.2129 79.0365 12.5234 79.0324 12.8344V17.9959H80.7401V12.4778C80.7617 11.8357 80.6593 11.1955 80.4388 10.5932C80.265 10.1393 79.9468 9.75725 79.5347 9.50744Z" fill="white"/>
<path d="M83.2683 17.9968H84.9761V9.16786L83.2683 9.42254V17.9968Z" fill="white"/>
<path d="M85.1435 6.03504C85.044 5.86088 84.903 5.71491 84.7333 5.61057C84.5595 5.50294 84.3593 5.44711 84.1557 5.44953C83.9495 5.44778 83.7468 5.5035 83.5697 5.61057C83.395 5.71423 83.2484 5.86004 83.1427 6.03504C83.0365 6.21138 82.9814 6.41445 82.9836 6.62106C82.9819 6.83019 83.037 7.03576 83.1427 7.21531C83.2449 7.39306 83.3924 7.53966 83.5697 7.63977C83.7484 7.74185 83.9505 7.79455 84.1557 7.79259C84.3583 7.79523 84.5578 7.74243 84.7333 7.63977C84.9056 7.53889 85.0475 7.3921 85.1435 7.21531C85.2441 7.03401 85.2961 6.82911 85.2942 6.62106C85.2966 6.41555 85.2446 6.21316 85.1435 6.03504Z" fill="white"/>
</svg>

<svg xmlns="http://www.w3.org/2000/svg" viewBox="0 0 87 24"><path fill="#fff" d="M0 18V6h3.937v12H0ZM9.294 7.91 11.558 18H7.25L4.546 6h2.416a2.276 2.276 0 0 1 1.513.55c.42.346.71.826.819 1.36ZM12.15 18V6h3.937v12H12.15Zm6.91-7.437a2.383 2.383 0 0 1-2.4-2.4 2.303 2.303 0 0 1 .322-1.2 2.411 2.411 0 0 1 3.278-.861c.356.21.653.506.862.862.215.363.326.778.321 1.2a2.4 2.4 0 0 1-1.183 2.079 2.303 2.303 0 0 1-1.2.32ZM22.053 18V6h3.937v12h-3.937Zm8.922-5.441c.01.011.095.15.253.414s.364.602.617 1.014a320.187 320.187 0 0 1 1.597 2.62c.247.41.529.875.845 1.393H29.96c-.27-.439-.516-.836-.736-1.191-.22-.355-.453-.738-.7-1.15-.248-.41-.493-.81-.736-1.2-.242-.388-.45-.729-.625-1.022a18.04 18.04 0 0 0-.363-.591 1.75 1.75 0 0 1-.287-.845c.016-.29.11-.57.27-.812.067-.112.191-.312.372-.6a182.106 182.106 0 0 0 1.37-2.23c.247-.411.48-.797.7-1.158L29.96 6h4.326L30.94 11.46a1.078 1.078 0 0 0-.17.54c.012.203.082.397.203.559ZM45.656 12.36a3.185 3.185 0 0 0-.837-.62 6.475 6.475 0 0 0-1.013-.416c-.357-.113-.726-.21-1.105-.289-.29-.068-.561-.135-.812-.203a3.703 3.703 0 0 1-.67-.247 2.209 2.209 0 0 1-.51-.34 1.222 1.222 0 0 1-.327-.474 1.853 1.853 0 0 1-.108-.671 2.068 2.068 0 0 1 .108-.696c.07-.198.184-.376.335-.518.157-.146.335-.266.528-.357.22-.101.454-.17.695-.203a5.79 5.79 0 0 1 .862-.06 7.216 7.216 0 0 1 1.574.17c.252.056.5.126.745.212.228.08.45.18.661.297l.235-1.494a4.135 4.135 0 0 0-.745-.305 9.914 9.914 0 0 0-.796-.204 7.847 7.847 0 0 0-.82-.127 8.46 8.46 0 0 0-.854-.043 7.034 7.034 0 0 0-1.758.204 3.95 3.95 0 0 0-1.364.628c-.38.276-.684.643-.888 1.07a3.499 3.499 0 0 0-.31 1.528c-.009.407.056.813.193 1.196.12.322.305.614.544.858.236.239.507.44.804.594.314.165.642.3.98.408.351.113.711.21 1.08.289.3.067.58.138.837.212.238.067.47.155.694.263.192.092.37.212.528.357.15.142.266.316.343.509.089.232.131.48.126.73.004.265-.036.53-.118.781-.073.218-.187.42-.335.594a1.613 1.613 0 0 1-.535.408 2.676 2.676 0 0 1-.729.22 5.72 5.72 0 0 1-.929.068c-.302 0-.604-.02-.904-.059-.312-.04-.625-.093-.938-.162a9.294 9.294 0 0 1-.912-.246 17.007 17.007 0 0 1-.845-.297l.217 1.681c.286.108.576.202.871.28.267.071.538.128.812.17.262.04.524.07.787.093.262.023.527.034.795.034.6.004 1.197-.059 1.783-.186a4.24 4.24 0 0 0 1.457-.612c.414-.278.749-.661.971-1.112a3.806 3.806 0 0 0 .343-1.706 3.884 3.884 0 0 0-.192-1.29 2.515 2.515 0 0 0-.554-.917ZM55.677 16.927a.754.754 0 0 1-.653-.272 1.477 1.477 0 0 1-.184-.9l.033-3.497a4.13 4.13 0 0 0-.134-1.087 2.676 2.676 0 0 0-.402-.866 2.285 2.285 0 0 0-.694-.628 3.532 3.532 0 0 0-1.013-.39 5.881 5.881 0 0 0-1.323-.136c-.353 0-.705.022-1.055.068-.33.042-.658.107-.98.195a8.034 8.034 0 0 0-.878.297l-.201 1.443a10.062 10.062 0 0 1 1.523-.424 6.05 6.05 0 0 1 .695-.093 9.24 9.24 0 0 1 .678-.026c.342-.007.682.033 1.013.119.242.061.464.184.645.357.161.168.277.375.335.603.071.28.105.568.1.857l-.002.426-1.956.134a5.141 5.141 0 0 0-1.942.441c-.46.204-.856.53-1.148.943a2.214 2.214 0 0 0-.376 1.248c-.004.417.097.83.293 1.197.205.378.513.687.887.89.457.242.967.359 1.482.34a3.81 3.81 0 0 0 1.414-.237c.392-.155.75-.386 1.055-.679.116-.113.226-.231.33-.356.032.176.094.345.181.5.15.26.379.463.653.578.303.123.628.184.954.178.101 0 .198-.003.293-.008.093-.006.186-.02.277-.043l.242-.06c.066-.014.13-.034.193-.059l.184-1.137a1.472 1.472 0 0 1-.284.068 1.9 1.9 0 0 1-.235.016Zm-2.788-.764a3.22 3.22 0 0 1-.586.374 2.628 2.628 0 0 1-.653.22 3.663 3.663 0 0 1-.712.068 1.861 1.861 0 0 1-.795-.153 1.096 1.096 0 0 1-.494-.432 1.283 1.283 0 0 1-.167-.67c-.016-.284.06-.565.218-.8.182-.215.429-.364.703-.424a5.041 5.041 0 0 1 1.306-.135h1.466l-.008 1.685a2.275 2.275 0 0 1-.278.267ZM53.952 5.11h-1.808l-1.423 3.04h1.306l1.925-3.04ZM64.224 9.686a3.56 3.56 0 0 0-2-.535 5.046 5.046 0 0 0-1.24.16 5.343 5.343 0 0 0-1.49.642v-.785l-1.708.272v12.122h1.708v-3.801l.034.015c.309.13.632.224.962.28.39.065.785.097 1.18.093a4.136 4.136 0 0 0 2.152-.56 4.008 4.008 0 0 0 1.507-1.621 5.489 5.489 0 0 0 .56-2.59 5.344 5.344 0 0 0-.426-2.207 3.399 3.399 0 0 0-1.24-1.485Zm-.444 5.679c-.2.45-.538.825-.962 1.07-.472.25-1 .373-1.532.356a4.714 4.714 0 0 1-1.791-.346v-5.358c.021-.01.044-.024.066-.034.246-.114.475-.21.687-.29a3.398 3.398 0 0 1 1.188-.22 3.061 3.061 0 0 1 1.49.33c.404.224.72.58.896 1.01.213.552.313 1.141.293 1.733a4.099 4.099 0 0 1-.335 1.749ZM79.535 9.507a2.882 2.882 0 0 0-1.49-.356 3.872 3.872 0 0 0-1.323.23 4.648 4.648 0 0 0-1.206.652 6.123 6.123 0 0 0-.594.51 2.12 2.12 0 0 0-.862-1.019 2.92 2.92 0 0 0-1.507-.356c-.448 0-.892.077-1.314.229a4.74 4.74 0 0 0-1.566.928V9.17l-1.708.255v8.574h1.708v-6.46c.201-.134.411-.254.628-.359a4.27 4.27 0 0 1 .829-.297c.263-.066.532-.1.803-.102.25-.008.497.036.729.127.191.083.36.21.494.374.145.189.245.41.293.645.065.304.096.614.092.925v5.145h1.708v-5.501c0-.325-.021-.65-.065-.971.193-.13.394-.247.6-.353.261-.134.537-.236.82-.306.27-.067.545-.101.821-.102.246-.006.49.037.72.127.195.08.368.21.502.374.146.189.246.41.293.645.066.304.097.614.092.925v5.162h1.708v-5.518a4.995 4.995 0 0 0-.301-1.885 2.18 2.18 0 0 0-.904-1.086ZM83.268 17.997h1.708v-8.83l-1.708.256v8.574ZM85.144 6.035c-.1-.174-.241-.32-.41-.424a1.073 1.073 0 0 0-.578-.161 1.114 1.114 0 0 0-.586.16c-.175.104-.322.25-.427.425-.106.176-.162.38-.16.586-.001.21.054.415.16.594a1.159 1.159 0 0 0 1.013.577 1.1 1.1 0 0 0 .988-.577c.1-.181.152-.386.15-.594a1.16 1.16 0 0 0-.15-.586Z"/></svg>
